!!!!SEGMENT: pl-kk--kk-i-1--009_gawara-walentyn--per-merita-sancti-adalberti.krn
!!!cenid: 15xx:689
!!!COM: Gawara, Walentyn
!!!COM-rismid: pe30096217
!!!CDT:
!!!CNT:
!!!OTL: Per merita sancti Adalberti
!!!PDT:
!!!AGN:
!!!SMS-siglum: PL-Kk
!!!SMS-shelfmark: Kk.I.1
!!!SMS-shelfwork: 009 W
!!!SMS-variant:
!!!SMS-altvar:
!!!NIFC-rismid: 300257963
!!!URL-scan: http://repozytorium.nifc.pl/skany/pl-kk-nut--i-1
!!!ONB-nifc: UWAGA: Cantus (s. 60v-61r, skan 0063), Altus (s. 61r-v, skan 0253-0254), Tenor (s. 60v-61r, skan 0449), Bassus (s. 59r-v, skan 0620-0621).
!!!AIN: 1 alto 1 bass 1 soprn 1 tenor
!!!key: F
**kern	**text	**kern	**text	**kern	**kern	**text	**kern	**text
*part5	*part5	*part4	*part4	*part3	*part2	*part2	*part1	*part1
*staff5	*staff5	*staff4	*staff4	*staff3	*staff2	*staff2	*staff1	*staff1
*I"BASSVS	*	*I"TENOR	*	*I"[QVINTVS]	*I"ALTVS	*	*I"CANTVS	*
*I'B	*	*I'T	*	*I'[Q]	*I'A	*	*I'C	*
*Ibass	*	*Itenor	*	*	*Ialto	*	*Isoprn	*
*ICvox	*	*ICvox	*	*ICvox	*ICvox	*	*ICvox	*
*clefF4	*	*clefC4	*	*clefC3	*clefC4	*	*clefC3	*
*k[b-]	*	*k[b-]	*	*k[b-]	*k[b-]	*	*k[b-]	*
*F:	*	*F:	*	*F:	*F:	*	*F:	*
*M2/1	*	*M2/1	*	*M2/1	*M2/1	*	*M2/1	*
*met(C)	*	*met(C)	*	*met(C)	*met(C)	*	*met(C)	*
=1-	=1-	=1-	=1-	=1-	=1-	=1-	=1-	=1-
!LO:TX:t=P:problem=nad pauzami drobne nuty - partia T	!	!	!	!	!	!	!	!
!LO:TX:a:t=[V]alentinus \n[G]auara.\nVocu(m).	!	!LO:TX:a:t=Valent Gutek *\nu dołu strony&colon;\n* Valentinus Gauara.	!	!LO:TX:t=P:problem=głosu Quintus nie ma w Kk I.1\nJest w Kk I.360\nJakby co, to mam przepisany. 	!LO:TX:a:t=Valentinus \nGauara\n5. vocum.	!	!LO:TX:a:t=Valentinus Gauara\nad aequales 5. vocum.	!
00r	.	00r	.	0ryy	1F	Per	0r	.
.	.	.	.	.	2G/	mae-	.	.
.	.	.	.	.	1B-\	.	.	.
=2-	=2-	=2-	=2-	=2-	=2-	=2-	=2-	=2-
.	.	.	.	0ryy	.	.	1c	Per
.	.	.	.	.	2A\	.	.	.
.	.	.	.	.	2B-\	.	2d\	mae-
.	.	.	.	.	2d\	.	1f\	.
=3-	=3-	=3-	=3-	=3-	=3-	=3-	=3-	=3-
00r	.	1C	Per	0ryy	2.c\	.	.	.
.	.	.	.	.	.	.	2e\	.
.	.	.	.	.	4B-\	-ri-	.	.
.	.	2D/	mae-	.	1A	-ta	2.f\	-ri-
.	.	1F/	.	.	.	.	.	.
.	.	.	.	.	.	.	4e\	.
=4-	=4-	=4-	=4-	=4-	=4-	=4-	=4-	=4-
.	.	.	.	0ryy	2r	.	2d\	-ta
.	.	2E/	.	.	1c	San-	2g\	ſan-
.	.	2F/	-ri-	.	.	.	2f\	-cti
.	.	2A/	-ta	.	2c\	-cti	4e\	A-
.	.	.	.	.	.	.	4f\	.
=5-	=5-	=5-	=5-	=5-	=5-	=5-	=5-	=5-
00r	.	1G	San-	0ryy	2d\	A-	2g\	-dal-
.	.	.	.	.	2d\	-dal-	2g\	-ber-
.	.	2C/	.	.	4e#X\	-ber-	1g	-ti
.	.	.	.	.	4d\	.	.	.
.	.	1c\	-cti	.	4c\	.	.	.
.	.	.	.	.	4B-\	.	.	.
=6-	=6-	=6-	=6-	=6-	=6-	=6-	=6-	=6-
.	.	.	.	0ryy	2A/	.	1a	A-
.	.	2f\	San-	.	1c	.	.	.
.	.	2d\	.	.	.	.	1.g	-dal-
.	.	2d\	-cti	.	2B-\	.	.	.
=7-	=7-	=7-	=7-	=7-	=7-	=7-	=7-	=7-
*	*	*lig	*	*	*	*	*	*
*	*	*	*	*	*custos:F	*	*	*
1C	Per	1e	A-	0ryy	1c	-ti	.	.
.	.	.	.	.	.	.	2g\	-ber-
!	!	!	!	!	!LO:LB:g=original	!	!	!
*lig	*	*col	*	*	*	*	*	*
1D	mae-	2.d\	.	.	2.F/	San-	1f	-ti
*	*	*Xlig	*	*	*	*	*	*
.	.	8c\L	-dal-	.	4G/	.	.	.
.	.	8B-\J	.	.	.	.	.	.
*	*	*Xcol	*	*	*	*	*	*
=8-	=8-	=8-	=8-	=8-	=8-	=8-	=8-	=8-
1F	.	4A/	-ber-	0ryy	4A/	.	2r	.
.	.	4G/	.	.	4B-\	.	.	.
*	*	*	*	*	*	*	*custos:f	*
.	.	4F/	.	.	1c	.	2c/	per
.	.	4G/	.	.	.	.	.	.
*Xlig	*	*	*	*	*	*	*	*
!	!	!	!	!	!	!	!LO:LB:g=original	!
1F	-ri-	2A/	.	.	.	.	1.f	mae-
.	.	2B-\	.	.	2B-\	-cti	.	.
=9-	=9-	=9-	=9-	=9-	=9-	=9-	=9-	=9-
1F	-ta	1c	-ti	0ryy	2A/	A-	.	.
.	.	.	.	.	2F/	-dal-	2f\	-ri-
*lig	*	*	*	*	*	*	*	*
1E	san-	2r	.	.	1c	-ber-	2g\	-ta
.	.	1c\	San-	.	.	.	2g\	S(an)-
=10-	=10-	=10-	=10-	=10-	=10-	=10-	=10-	=10-
1F	.	.	.	0ryy	1c	-ti	1f	-cti
*	*	*custos:d	*	*	*	*	*	*
.	.	2A/	-cti	.	.	.	.	.
*Xlig	*	*	*	*	*	*	*	*
!	!	!LO:LB:g=original	!	!	!	!	!	!
1G	.	4d\	A-	.	1r	.	2r	.
.	.	4c\	.	.	.	.	.	.
.	.	4B-\	.	.	.	.	2d\	San-
.	.	4A\	.	.	.	.	.	.
=11-	=11-	=11-	=11-	=11-	=11-	=11-	=11-	=11-
*	*	*	*	*	*	*ij	*	*
1E	-cti	2G/	-dal-	0ryy	1c	Sanc-	2e\	-cti
.	.	2.c\	-ber-	.	.	.	2g\	.
1F	A-	.	.	.	2A/	-ti	2.f\	A-
.	.	4B-\	.	.	.	.	.	.
.	.	4A/	.	.	2.c\	A-	.	.
.	.	4G/	.	.	.	.	4g\	-dal-
=12-	=12-	=12-	=12-	=12-	=12-	=12-	=12-	=12-
*lig	*	*	*	*	*	*	*	*
1F	-dal-	4F/	.	0ryy	.	.	2a\	-ber-
.	.	4G/	.	.	4B-\	.	.	.
.	.	4A/	.	.	2.A/	-dal-	2f\	-ti
.	.	4B-\	.	.	.	.	.	.
*	*	*	*	*	*	*	*	*ij
1E	.	4c\	.	.	.	.	2g\	San-
.	.	4d\	.	.	4G/	.	.	.
.	.	4e\	.	.	1G/	-ber-	2e\	-cti
.	.	4c\	.	.	.	.	.	.
*Xlig	*	*	*	*	*	*	*	*
=13-	=13-	=13-	=13-	=13-	=13-	=13-	=13-	=13-
*lig	*	*	*	*	*	*	*	*
1D	-ber-	1d	-ti	0ryy	.	.	1.f	A-
.	.	.	.	.	2F/	.	.	.
*custos:F	*	*	*	*	*	*	*	*
1E	.	2r	.	.	1G	-ti	.	.
*	*	*	*ij	*	*	*	*	*
.	.	2c\	San-	.	.	.	2e\	.
*Xlig	*	*	*	*	*	*Xij	*	*
!LO:LB:g=original	!	!	!	!	!	!	!	!
=14-	=14-	=14-	=14-	=14-	=14-	=14-	=14-	=14-
*lig	*	*	*	*	*	*	*	*
1F	.	2f\	.	0ryy	1r	.	4d\	.
.	.	.	.	.	.	.	4c\	.
.	.	2d\	-cti	.	.	.	2.d\	-dal-
1E	.	1e	A-	.	1C	A-	.	.
.	.	.	.	.	.	.	4c/	.
.	.	.	.	.	.	.	1c\	-ber-
*Xlig	*	*	*	*	*	*	*	*
=15-	=15-	=15-	=15-	=15-	=15-	=15-	=15-	=15-
*lig	*	*	*	*	*	*	*	*
1D	-ti	1.f	-dal-	0ryy	2F/	-dal-	.	.
.	.	.	.	.	2D/	-ber-	2B-/	.
!	!	!	!	!	!LO:TX:t=P:problem=oddech jako rozdzielacz słów	!	!LO:TX:t=P:problem=oddech jako rozdzielacz słów	!
1C	.	.	.	.	1E,<	-ti	2c,</	-ti
*	*	*	*	*	*	*	*	*Xij
*	*	*	*	*	*	*	*custos:d	*
.	.	2e\	.	.	.	.	2c/	Chri-
*Xlig	*	*	*	*	*	*	*	*
!	!	!	!	!	!	!	!LO:PB:g=original	!
=16-	=16-	=16-	=16-	=16-	=16-	=16-	=16-	=16-
*	*	*	*	*	*	*	*lig	*
00r	.	4d\	.	0ryy	2F/	Chri-	1d	-ſte
.	.	4c\	.	.	.	.	.	.
*	*	*	*	*	*lig	*	*	*
.	.	4B-\	.	.	1G	-ſte	.	.
.	.	4A\	.	.	.	.	.	.
.	.	2G/	-ber-	.	.	.	1e	.
.	.	2c\	.	.	1A\	.	.	.
*	*	*	*	*	*Xlig	*	*Xlig	*
=17-	=17-	=17-	=17-	=17-	=17-	=17-	=17-	=17-
.	.	2F/	-ti	0ryy	.	.	2.f\	nos
*	*	*	*Xij	*	*	*	*	*
*	*	*	*	*	*custos:c	*	*	*
.	.	2r	.	.	2B-\	nos	.	.
.	.	.	.	.	.	.	4e\	.
*	*	*custos:G	*	*	*	*	*	*
!	!	!	!	!	!LO:LB:g=original	!	!	!
.	.	1F	Chri-	.	2c\	e-	4f\	.
.	.	.	.	.	.	.	4g\	.
.	.	.	.	.	2A/	.	2a\	.
!	!	!LO:LB:g=original	!	!	!	!	!	!
=18-	=18-	=18-	=18-	=18-	=18-	=18-	=18-	=18-
*	*	*lig	*	*	*	*	*	*
00r	.	1G	-ſte	0ryy	1B-	.	1g	.
.	.	1A	.	.	2A/	-xau-	2f\	e-
.	.	.	.	.	2F/	-di	2e\	.
*	*	*Xlig	*	*	*	*	*	*
=19-	=19-	=19-	=19-	=19-	=19-	=19-	=19-	=19-
.	.	2.B-\	nos	0ryy	1r	.	4d\	.
.	.	.	.	.	.	.	4e\	.
.	.	.	.	.	.	.	4f\	.
.	.	4A/	.	.	.	.	2d\	.
.	.	2G/	e-	.	2r	.	.	.
.	.	.	.	.	.	.	4e\	.
.	.	2F/	-xau-	.	1c\	Chr(i-	1f\	.
=20-	=20-	=20-	=20-	=20-	=20-	=20-	=20-	=20-
*lig	*	*	*	*	*	*	*	*
1C	Chri-	1C	-di	0ryy	.	.	.	.
.	.	.	.	.	2c\	-st)e	2e\	-xau-
*	*	*	*ij	*	*	*	*	*
1D	.	1F	Chri-	.	2A/	nos	1f	-di
*	*	*	*	*	*	*ij	*	*
.	.	.	.	.	2d\	nos	.	.
*Xlig	*	*	*	*	*	*Xij	*	*
=21-	=21-	=21-	=21-	=21-	=21-	=21-	=21-	=21-
*lig	*	*lig	*	*	*	*	*	*
1E	.	1G	-ſte	0ryy	2.c\	e-	1r	.
.	.	.	.	.	4B-/	.	.	.
1F	.	1.A	.	.	4A/	.	1c	Chri-
.	.	.	.	.	4G/	.	.	.
.	.	.	.	.	4F/	.	.	.
.	.	.	.	.	4E/	.	.	.
*Xlig	*	*Xlig	*	*	*	*	*	*
=22-	=22-	=22-	=22-	=22-	=22-	=22-	=22-	=22-
*	*	*	*	*	*lig	*	*lig	*
1D	-ſte	.	.	0ryy	1F	-xau-	1d	-ſte
.	.	2B-\	.	.	.	.	.	.
*lig	*	*	*	*	*	*	*	*
1C	nos	1c	nos	.	1E	.	1e	.
*	*	*	*	*	*Xlig	*	*Xlig	*
=23-	=23-	=23-	=23-	=23-	=23-	=23-	=23-	=23-
1BB-	.	1.d	e-	0ryy	1D	-di	1.f	.
*Xlig	*	*	*	*	*	*	*	*
1AA	.	.	.	.	1r	.	.	.
.	.	2c\	.	.	.	.	2.e\	nos
=24-	=24-	=24-	=24-	=24-	=24-	=24-	=24-	=24-
1GG	e-	1B-	-xau-	0ryy	1G	Chri-	.	.
.	.	.	.	.	.	.	4d\	e-
.	.	.	.	.	.	.	1d	.
1AA	-xau-	1A	-di	.	1E	-ſte	.	.
*	*	*	*Xij	*	*	*	*	*
.	.	.	.	.	.	.	4c#X/	.
.	.	.	.	.	.	.	4B-/	.
=25-	=25-	=25-	=25-	=25-	=25-	=25-	=25-	=25-
1AA	-di	2r	.	0ryy	1.E	nos	2c#X/	.
*	*	*	*	*	*	*	*custos:d	*
.	.	1A	Chri-	.	.	.	2c#/	-xau-
!	!	!	!	!	!	!	!LO:LB:g=original	!
1r	.	.	.	.	.	.	1d	-di
.	.	2A\	-ſte	.	2E/	e-	.	.
=26-	=26-	=26-	=26-	=26-	=26-	=26-	=26-	=26-
00r	.	1.d	nos	0ryy	0D	-xau-	2r	.
*	*	*	*	*	*	*	*	*ij
.	.	.	.	.	.	.	1f	e-
.	.	4c\	.	.	.	.	4e\	.
.	.	4B-\	.	.	.	.	4d\	.
=27-	=27-	=27-	=27-	=27-	=27-	=27-	=27-	=27-
.	.	2c#X\	.	0ryy	0A	-di	2e\	.
.	.	1d	.	.	.	.	2f\	.
.	.	.	.	.	.	.	2.f\	-xau-
.	.	2c#\	.	.	.	.	.	.
.	.	.	.	.	.	.	4e\	.
=28-	=28-	=28-	=28-	=28-	=28-	=28-	=28-	=28-
*	*	*custos:c	*	*	*	*	*	*
0r	.	2B-\	.	0ryy	2r	.	2d\	­ di
*	*	*	*	*	*	*ij	*	*Xij
*	*	*	*	*	*custos:f	*	*	*
!	!	!LO:LB:g=original	!	!	!	!	!	!
.	.	1cny	e-	.	2c\	Chri-	2g\	nos
!	!	!	!	!	!LO:PB:g=original	!	!	!
.	.	.	.	.	2f\	-ſte	2a\	e-
.	.	2B-\	-xau-	.	2d\	nos	2g\	-xau-
=29-	=29-	=29-	=29-	=29-	=29-	=29-	=29-	=29-
1C	at-	1c	-di	0ryy	1.eny	e-	0g	-di
1GG	-que	2r	.	.	.	.	.	.
.	.	1c\	at-	.	2d\	-xau-	.	.
=30-	=30-	=30-	=30-	=30-	=30-	=30-	=30-	=30-
*lig	*	*	*	*	*	*	*	*
1C	e-	.	.	0ryy	2c\	-di	2r	.
*	*	*	*	*	*	*Xij	*	*
.	.	2G/	-q(ue)	.	2e\	at-	1g	at-
1D	.	2B-\	e-	.	2d\	-q(ue)	.	.
.	.	1A\	-ius	.	2f\	e-	2d\	-q(ue)
*Xlig	*	*	*	*	*	*	*	*
=31-	=31-	=31-	=31-	=31-	=31-	=31-	=31-	=31-
*custos:E	*	*	*	*	*	*	*	*
1E	.	.	.	0ryy	2e\	-ius	0g	e-
.	.	4G/	.	.	1e	p(re)-	.	.
.	.	4F/	.	.	.	.	.	.
!LO:PB:g=original	!	!	!	!	!	!	!	!
1E	-ius	2.G/	pre-	.	.	.	.	.
.	.	.	.	.	2e\	-ci-	.	.
.	.	4A/	.	.	.	.	.	.
=32-	=32-	=32-	=32-	=32-	=32-	=32-	=32-	=32-
*lig	*	*	*	*	*	*	*	*
1G	pre-	4B-\	.	0ryy	1d	-bus	1g	-ius
.	.	4c\	.	.	.	.	.	.
.	.	4d\	.	.	.	.	.	.
.	.	4e\	.	.	.	.	.	.
1F	.	2f\	.	.	2r	.	2r	.
.	.	1d\	.	.	1A\	e-	2d\	pre-
*Xlig	*	*	*	*	*	*	*	*
=33-	=33-	=33-	=33-	=33-	=33-	=33-	=33-	=33-
1E	.	.	.	0ryy	.	.	4e\	.
.	.	.	.	.	.	.	4f\	.
.	.	2c\	-ci-	.	2G/	-ius	4g\	.
.	.	.	.	.	.	.	4e\	.
1D	-ci-	1d	-bus	.	2F/	p(re)-	1f	.
.	.	.	.	.	2F/	-ci-	.	.
=34-	=34-	=34-	=34-	=34-	=34-	=34-	=34-	=34-
1E	-bus	1r	.	0ryy	1.C	-bus	2.e\	.
.	.	.	.	.	.	.	4f\	-ci-
1r	.	2.e\	pre-	.	.	.	1g	-bus
*	*	*	*	*	*	*ij	*	*
.	.	.	.	.	1c\	e-	.	.
.	.	4d\	.	.	.	.	.	.
=35-	=35-	=35-	=35-	=35-	=35-	=35-	=35-	=35-
00r	.	2c\	.	0ryy	.	.	2r	.
*	*	*	*	*	*	*	*custos:a	*
.	.	2B-\	-ci-	.	2.d\	-ius	2g\	e-
!	!	!	!	!	!	!	!LO:LB:g=original	!
*	*	*	*	*	*	*	*lig	*
.	.	1A	-bus	.	.	.	1a	-ius
.	.	.	.	.	4e\	.	.	.
.	.	.	.	.	2f\	p(re)-	.	.
=36-	=36-	=36-	=36-	=36-	=36-	=36-	=36-	=36-
.	.	1r	.	0ryy	2e\	.	1g	.
.	.	.	.	.	1d	.	.	.
*	*	*	*	*	*	*	*Xlig	*
.	.	2r	.	.	.	.	2f\	pre-
*	*	*lig	*	*	*	*	*	*
.	.	1A/	no-	.	2c#X\	-ci-	2e\	-ci-
=37-	=37-	=37-	=37-	=37-	=37-	=37-	=37-	=37-
1r	.	.	.	0ryy	1d	-bus	2f#X\	-bus
*	*	*	*	*	*	*Xij	*	*
.	.	1d	.	.	.	.	1f#	no-
*lig	*	*	*	*	*	*	*	*
1A	no-	.	.	.	1r	.	.	.
*	*	*Xlig	*	*	*	*	*	*
*	*	*custos:d	*	*	*	*	*	*
.	.	2c\	.	.	.	.	4e\	.
.	.	.	.	.	.	.	4f#\	.
!	!	!LO:PB:g=original	!	!	!	!	!	!
=38-	=38-	=38-	=38-	=38-	=38-	=38-	=38-	=38-
*	*	*	*	*	*custos:c	*	*	*
1G	.	2d\	-bis	0ryy	0r	.	2g\	.
!	!	!LO:N:acc=#	!	!	!	!	!	!
.	.	2Bn\	ſuc-	.	.	.	1e	.
*Xlig	*	*	*	*	*	*	*	*
1F	.	2c\	-cu-	.	.	.	.	.
.	.	2A/	-re	.	.	.	2d\	.
!	!	!	!	!	!LO:LB:g=original	!	!	!
=39-	=39-	=39-	=39-	=39-	=39-	=39-	=39-	=39-
1E	.	0r	.	0ryy	1r	.	0e	.
1E	-bis	.	.	.	2r	.	.	.
.	.	.	.	.	2cny\	no-	.	.
=40-	=40-	=40-	=40-	=40-	=40-	=40-	=40-	=40-
00r	.	2r	.	0ryy	2d\	-bis	1f#X	-bis
.	.	1f	no-	.	2B-\	.	.	.
.	.	.	.	.	2c\	ſuc-	2r	.
.	.	2e\	-bis	.	2A/	-cu-	2a\	no-
=41-	=41-	=41-	=41-	=41-	=41-	=41-	=41-	=41-
.	.	2d\	.	0ryy	2B-\	-re	2fny\	-bis
.	.	1c	ſuc-	.	1F	mi-	1f	ſuc-
.	.	2B-y\	-cu-	.	2G/	-ſe-	2d\	-cu-
=42-	=42-	=42-	=42-	=42-	=42-	=42-	=42-	=42-
00r	.	1A	-re	0ryy	1D	-ris	0d	-re
.	.	2.B-\	mi-	.	2r	.	.	.
.	.	.	.	.	1G/	ſuc-	.	.
.	.	4A/	.	.	.	.	.	.
=43-	=43-	=43-	=43-	=43-	=43-	=43-	=43-	=43-
.	.	2G/	.	0ryy	.	.	2r	.
.	.	2A/	.	.	2F/	-cu-	1cny	mi-
.	.	1G	-ſe-	.	1C	-re	.	.
.	.	.	.	.	.	.	2c/	-ſe-
=44-	=44-	=44-	=44-	=44-	=44-	=44-	=44-	=44-
*lig	*	*	*	*	*	*	*	*
1F	ſuc-	2F/	-ris	0ryy	2r	.	1c	-ris
*	*	*	*ij	*	*	*	*	*
.	.	2A/	mi-	.	1c	mi-	.	.
1E	.	2G/	.	.	.	.	1r	.
.	.	2c\	.	.	2c\	-ſe-	.	.
*Xlig	*	*	*	*	*	*	*	*
=45-	=45-	=45-	=45-	=45-	=45-	=45-	=45-	=45-
*lig	*	*	*	*	*	*	*lig	*
1D	-cu-	2A/	.	0ryy	1d	-ris	1f	ſuc-
.	.	2B-\	.	.	.	.	.	.
1C	.	1c	-ſe-	.	2r	.	1e	.
.	.	.	.	.	2.G/	ſuc-	.	.
*Xlig	*	*	*	*	*	*	*Xlig	*
=46-	=46-	=46-	=46-	=46-	=46-	=46-	=46-	=46-
*lig	*	*	*	*	*	*	*	*
1D	-re	2B-\	.	0ryy	.	.	2d\	-cu-
.	.	.	.	.	4F/	.	.	.
.	.	2A/	-ris	.	1F	-cu-	2d\	-re
*	*	*	*Xij	*	*	*	*	*
1C	.	2r	.	.	.	.	2.e\	mi-
*	*	*custos:F	*	*	*	*	*	*
.	.	2E/	ſuc-	.	2E/	-re	.	.
.	.	.	.	.	.	.	8d\L	.
*	*	*	*	*	*	*	*custos:d	*
.	.	.	.	.	.	.	8c\J	.
*Xlig	*	*	*	*	*	*	*	*
!	!	!LO:LB:g=original	!	!	!	!	!LO:LB:g=original	!
=47-	=47-	=47-	=47-	=47-	=47-	=47-	=47-	=47-
*lig	*	*	*	*	*	*	*	*
1BB-	mi-	2F/	-cu-	0ryy	1D	mi-	2.d\	.
.	.	2G/	-re	.	.	.	.	.
.	.	.	.	.	.	.	8c/L	.
.	.	.	.	.	.	.	8B-/J	.
*custos:GG	*	*	*	*	*	*	*	*
1AA	.	2.A/	mi-	.	2E/	.	2c/	.
.	.	.	.	.	2F/	-ſe-	2A/	.
.	.	4A/	-ſe-	.	.	.	.	.
*Xlig	*	*	*	*	*	*	*	*
!LO:LB:g=original	!	!	!	!	!	!	!	!
=48-	=48-	=48-	=48-	=48-	=48-	=48-	=48-	=48-
*lig	*	*	*	*	*	*	*	*
1GG	-ſe-	1D	  ris	0ryy	2D/	-ris	4B-/	-ſe-
.	.	.	.	.	.	.	4G/	-ris
.	.	.	.	.	1d	al-	1g	al-
1AA	.	2r	.	.	.	.	.	.
.	.	1A/	Al-	.	4c\	.	2f\	-le-
*	*	*	*	*	*custos:A	*	*	*
.	.	.	.	.	4B-\	.	.	.
*Xlig	*	*	*	*	*	*	*	*
!	!	!	!	!	!LO:LB:g=original	!	!	!
=49-	=49-	=49-	=49-	=49-	=49-	=49-	=49-	=49-
1AA	-ris.	.	.	0ryy	2A/	.	2.e\	.
.	.	2A/	-le-	.	1c	.	.	.
.	.	.	.	.	.	.	8d\L	.
.	.	.	.	.	.	.	8c\J	.
1r	.	1G	.	.	.	.	1d	-lu-
!	!	!	!	!	!LO:N:acc=#	!	!	!
.	.	.	.	.	2Bn\	-le-	.	.
=50-	=50-	=50-	=50-	=50-	=50-	=50-	=50-	=50-
1C	al-	2.E/	-lu-	0ryy	1.c	-lu-	2e\	-ia
*	*	*	*	*	*	*	*	*ij
.	.	.	.	.	.	.	1g	al-
.	.	4F/	-ia.	.	.	.	.	.
*lig	*	*	*	*	*	*	*	*
1GG	-le-	1G	.	.	.	.	.	.
.	.	.	.	.	2B-y\	-ia	2d\	-le-
=51-	=51-	=51-	=51-	=51-	=51-	=51-	=51-	=51-
1AA	.	2r	.	0ryy	1A	.	2f\	.
*	*	*	*ij	*	*	*	*	*
.	.	2A/	Al-	.	.	.	4e\	.
.	.	.	.	.	.	.	4d\	.
*Xlig	*	*	*	*	*	*	*	*
0AA	-lu-	2A/	-le-	.	1r	.	2e\	.
.	.	2A/	-lu-	.	.	.	2f\	.
=52-	=52-	=52-	=52-	=52-	=52-	=52-	=52-	=52-
.	.	1E	-ia	0ryy	2r	.	2e\	.
*	*	*	*Xij	*	*	*	*	*
.	.	.	.	.	2A/	al-	2e\	-lu-
1AA	-ia	1r	.	.	2A/	-l(e-	1f#X	-ia
*	*	*	*	*	*	*	*	*Xij
.	.	.	.	.	2A/	-lu-	.	.
=53-	=53-	=53-	=53-	=53-	=53-	=53-	=53-	=53-
1r	.	2.A/	Al-	0ryy	1.D	-i)a	0r	.
.	.	4G/	-le-	.	.	.	.	.
2.A\	al-	2F/	.	.	.	.	.	.
.	.	2E/	.	.	2.A/	.	.	.
4G\	.	.	.	.	.	.	.	.
=54-	=54-	=54-	=54-	=54-	=54-	=54-	=54-	=54-
2F\	-le-	2D/	.	0ryy	.	.	2.a\	al-
.	.	.	.	.	4B-\	al-	.	.
2E\	.	2C/	.	.	4c\	.	.	.
.	.	.	.	.	4A\	.	4g\	.
2D/	.	2D/	.	.	2d\	.	2fny\	-le-
2AA/	.	2E/	.	.	2c#X\	-le-	2e\	.
=55-	=55-	=55-	=55-	=55-	=55-	=55-	=55-	=55-
1D	-lu-	1F	-lu-	0ryy	1.d	-lu-	4d\	-lu-
.	.	.	.	.	.	.	2f\	-ia.
.	.	.	.	.	.	.	8e\L	.
.	.	.	.	.	.	.	8d\J	.
[1AAl	-ia.	[1El	-ia.	.	.	.	[1cl	.
.	.	.	.	.	4cny\	-ia.	.	.
.	.	.	.	.	4B-\	.	.	.
=56-	=56-	=56-	=56-	=56-	=56-	=56-	=56-	=56-
0AA]	.	0E]	.	0ryy	0c#Xl	.	0c]	.
==	==	==	==	==	==	==	==	==
*-	*-	*-	*-	*-	*-	*-	*-	*-
!!!system-decoration: [(s1,s2,s3,s4,s5)]
!!!RDF**kern: < = below
!!!RDF**kern: l = terminal long
!!!ENC: Mateusz Solarz
!!!END: 2022-02-10
!!!ENC: Marta Lawrence
!!!END: 2022-01-12
